X:1
T:Title
L:1/8
M:4/4
I:linebreak $
K:D
V:1 treble nm="Voice"
V:1
"D" DFAd"G" B2 AG |"D" FABc dc d2 | DFAd"G" B2 AF | BA"D"FD"A" E2 E2 |"D" DFAd"G" B2 AG | %5
"D" FABc dcde | fefa"G" gfed |1"A" cABc"D" d2 d2 :|2"A" cABc"D" defg |:"D" a2 fd Adfa | %10
"G" g2 ec"A" Acef |"G" ge"A"ce"D" afdf |"G" bg"A"ec"D" d2 ef |"D" a2 fd Adfa |"G" g2 ec"A" Acef | %15
"G" ge"A"ce"D" afdf |1"G" bg"A"ec"D" d2 ef :|2"G" bg"A"ec"D" d2 d2 |] %18
